school/img/country/AL.svg

<svg width="13" height="12" viewBox="0 0 13 12" fill="none" xmlns="http://www.w3.org/2000/svg">
<mask id="mask0" mask-type="alpha" maskUnits="userSpaceOnUse" x="0" y="0" width="13" height="12">
<rect width="13" height="12" rx="2" fill="white"/>
</mask>
<g mask="url(#mask0)">
<rect width="13" height="12" fill="#EE343C"/>
<path fill-rule="evenodd" clip-rule="evenodd" d="M5.90219 2.82745C5.72241 2.59511 5.38457 2.56103 5.16201 2.75278V2.75278C4.90268 2.9762 4.9309 3.38613 5.2184 3.5719L5.64411 3.84697C5.79179 3.94239 5.88098 4.10621 5.88098 4.28204V4.32198C5.88098 4.586 5.66695 4.80002 5.40293 4.80002V4.80002C5.31089 4.80002 5.2208 4.77345 5.14349 4.7235L4.41262 4.25124C4.19276 4.10918 3.90075 4.15909 3.74056 4.36611V4.36611C3.55991 4.59956 3.61768 4.93759 3.86561 5.09779L4.21927 5.32631C4.43088 5.46304 4.45166 5.76477 4.26079 5.92921V5.92921C4.02999 6.12805 4.11774 6.50429 4.41268 6.58053L4.56205 6.61913C4.86866 6.69838 4.97026 7.08272 4.74285 7.30313L4.44169 7.59503C4.28961 7.74243 4.39395 8.00002 4.60575 8.00002V8.00002C4.63035 8.00002 4.6548 7.99617 4.67822 7.98861L5.11459 7.84763C5.39657 7.75652 5.64759 8.05243 5.51173 8.31579V8.31579C5.39774 8.53677 5.55815 8.80002 5.8068 8.80002H5.98408C6.10559 8.80002 6.21171 8.88224 6.24205 8.9999V8.9999C6.31079 9.26639 6.68925 9.26639 6.75799 8.9999V8.9999C6.78834 8.88224 6.89445 8.80002 7.01596 8.80002H7.19324C7.44189 8.80002 7.60231 8.53677 7.48831 8.31579V8.31579C7.35245 8.05243 7.60347 7.75652 7.88546 7.84763L8.32183 7.98861C8.34524 7.99617 8.3697 8.00002 8.3943 8.00002V8.00002C8.60609 8.00002 8.71044 7.74243 8.55836 7.59503L8.25719 7.30313C8.02979 7.08272 8.13138 6.69838 8.43799 6.61913L8.58737 6.58053C8.88231 6.50429 8.97005 6.12805 8.73926 5.92921V5.92921C8.54839 5.76477 8.56916 5.46304 8.78077 5.32631L9.13443 5.09779C9.38236 4.93759 9.44014 4.59956 9.25949 4.36611V4.36611C9.0993 4.15909 8.80729 4.10918 8.58743 4.25124L7.85655 4.7235C7.77924 4.77345 7.68916 4.80002 7.59711 4.80002V4.80002C7.3331 4.80002 7.11907 4.586 7.11907 4.32198V4.28204C7.11907 4.10621 7.20812 3.94248 7.3558 3.84706C7.49112 3.75962 7.64051 3.66309 7.7817 3.57186C8.0692 3.38609 8.09737 2.9762 7.83804 2.75278V2.75278C7.61548 2.56103 7.27763 2.59511 7.09785 2.82745L7.01146 2.93909C6.75257 3.27365 6.24747 3.27365 5.98859 2.93909L5.90219 2.82745Z" fill="#262626"/>
</g>
</svg>

<svg width="13" height="12" fill="none" xmlns="http://www.w3.org/2000/svg"><mask id="a" maskUnits="userSpaceOnUse" x="0" y="0" width="13" height="12"><rect width="13" height="12" rx="2" fill="#fff"/></mask><g mask="url(#a)"><path fill="#EE343C" d="M0 0h13v12H0z"/><path fill-rule="evenodd" clip-rule="evenodd" d="M5.902 2.827a.513.513 0 10-.684.744l.426.276c.148.095.237.26.237.435v.04a.478.478 0 01-.737.402l-.731-.473a.504.504 0 10-.547.847l.353.228a.377.377 0 01.042.603.377.377 0 00.152.652l.149.038c.307.08.408.464.18.684l-.3.292a.236.236 0 00.237.394l.436-.141a.332.332 0 01.397.468.332.332 0 00.295.484h.177c.122 0 .228.082.258.2.069.266.447.266.516 0 .03-.118.136-.2.258-.2h.177c.249 0 .41-.263.295-.484a.332.332 0 01.397-.468l.437.14a.236.236 0 00.237-.394l-.302-.29a.406.406 0 01.181-.685l.15-.038a.377.377 0 00.151-.652.377.377 0 01.042-.603l.353-.228a.504.504 0 10-.547-.847l-.73.473a.478.478 0 01-.737-.402v-.04c0-.176.088-.34.236-.435l.426-.275a.513.513 0 10-.684-.744l-.087.111a.647.647 0 01-1.022 0l-.087-.112z" fill="#262626"/></g></svg>
